X: 12266
T: Fairly Shot Of Her
R: jig
M: 6/8
K: Gmajor
B|:"Am"c2A c2A|c2e ecA|c2A c2A|GB" G"d dBG|
"Am"c2A c2A|c2e ece|ce"Am"g dB" G"G|"D"A2B cBA:|
|:"G"G2g gfg|"D"B2d d^cd|"G"G2g gfg|GBd dBA|
G2g gfg|gfg d2B|cd"C"e dB" G"G|"Am"A2B cBA:|

